packages/core/src/svgs/push.svg

<svg width="24" height="24" viewBox="0 0 24 24" fill="none" xmlns="http://www.w3.org/2000/svg">
<g clip-path="url(#clip0_31_16558)">
<path d="M0 0H24V24H0V0Z" fill="#F0F3FA"/>
<path d="M11.9744 16.2856H6.90871C6.75014 16.2684 6.42871 16.1227 6.42871 15.6684C6.42871 15.2099 6.80585 15.0084 6.99443 14.9999C7.92014 14.9999 8.12157 14.3141 8.143 13.9327V10.5641C8.143 8.37843 10.0116 7.35843 10.9116 7.12272C10.9116 6.27843 11.5887 6.02557 11.9744 5.99986C11.9916 5.9994 12.0087 5.9994 12.0259 5.99986C12.4116 6.02557 13.0887 6.27843 13.0887 7.12272C13.9887 7.35843 15.8573 8.37843 15.8573 10.5641V13.9327C15.8787 14.3184 16.0801 14.9999 17.0059 14.9999C17.1944 15.0084 17.5716 15.2141 17.5716 15.6684C17.5716 16.1227 17.2501 16.2684 17.0916 16.2856H11.9744ZM12.0001 18.4284C10.933 18.4284 10.0716 17.657 10.0716 16.7141H13.9287C13.9287 17.657 13.0673 18.4284 12.0001 18.4284Z" fill="url(#paint0_linear_31_16558)"/>
<path d="M6.90871 16.2856H17.0916C17.2501 16.2684 17.5716 16.1227 17.5716 15.6684C17.5716 15.2099 17.1944 15.0084 17.0059 14.9999C16.0801 14.9999 15.8787 14.3141 15.8573 13.9327V10.5641C15.8573 8.37843 13.9887 7.35843 13.0887 7.12272C13.0887 6.27843 12.4116 6.02557 12.0259 5.99986C12.0087 5.9994 11.9916 5.9994 11.9744 5.99986C11.5887 6.02557 10.9116 6.27843 10.9116 7.12272C10.0116 7.35843 8.143 8.37843 8.143 10.5641V13.9327C8.11574 14.2517 7.96726 14.5481 7.7281 14.761C7.48894 14.9738 7.17729 15.0869 6.85728 15.077C6.66871 15.0856 6.42871 15.2099 6.42871 15.6684C6.42871 16.1227 6.75014 16.2684 6.90871 16.2856Z" fill="url(#paint1_linear_31_16558)"/>
<path d="M9.07709 6.21447C9.0817 6.22825 9.08345 6.24281 9.08224 6.25729C9.08104 6.27176 9.0769 6.28584 9.07009 6.29867C9.06327 6.3115 9.05392 6.3228 9.0426 6.33191C9.03128 6.34101 9.01823 6.34771 9.00424 6.35161C7.24709 6.87875 6.95567 8.3659 7.02852 9.04304C7.03136 9.07146 7.0228 9.09984 7.00472 9.12194C6.98663 9.14404 6.96051 9.15806 6.93209 9.1609C6.90368 9.16374 6.8753 9.15518 6.8532 9.13709C6.83109 9.11901 6.81708 9.09288 6.81424 9.06447C6.76714 8.40474 6.95522 7.74965 7.34513 7.21539C7.73504 6.68112 8.30157 6.30223 8.94424 6.1459C8.99995 6.12875 9.05995 6.15875 9.07709 6.21875V6.21447Z" fill="url(#paint2_linear_31_16558)"/>
<path d="M8.9785 5.11294C8.98519 5.13962 8.98135 5.16786 8.96779 5.19179C8.95422 5.21573 8.93197 5.23353 8.90565 5.24151C6.42422 5.99151 6.01707 8.09151 6.11993 9.04294C6.12134 9.05701 6.11996 9.07122 6.11588 9.08476C6.11179 9.09829 6.10508 9.11089 6.09613 9.12184C6.08717 9.13278 6.07615 9.14185 6.06369 9.14854C6.05123 9.15522 6.03757 9.15939 6.0235 9.16079C6.00943 9.1622 5.99522 9.16082 5.98169 9.15674C5.96815 9.15265 5.95555 9.14594 5.9446 9.13699C5.93366 9.12804 5.92459 9.11701 5.9179 9.10455C5.91122 9.09209 5.90705 9.07844 5.90565 9.06437C5.7985 8.04865 6.23565 5.82437 8.84565 5.04008C8.90136 5.02294 8.96136 5.05722 8.9785 5.11294Z" fill="url(#paint3_linear_31_16558)"/>
<path d="M14.9228 6.21446C14.9056 6.27446 14.9356 6.33446 14.9956 6.3516C16.7528 6.87874 17.0442 8.36589 16.9713 9.04303C16.9685 9.07145 16.977 9.09983 16.9951 9.12193C17.0132 9.14403 17.0393 9.15805 17.0678 9.16089C17.0962 9.16373 17.1245 9.15517 17.1467 9.13708C17.1688 9.119 17.1828 9.09287 17.1856 9.06446C17.2327 8.40473 17.0446 7.74964 16.6547 7.21538C16.2648 6.68111 15.6983 6.30222 15.0556 6.14589C15.0421 6.14195 15.028 6.14071 15.014 6.14224C15 6.14377 14.9864 6.14803 14.9741 6.1548C14.9618 6.16157 14.9509 6.17069 14.9421 6.18167C14.9333 6.19264 14.9267 6.20524 14.9228 6.21874V6.21446Z" fill="url(#paint4_linear_31_16558)"/>
<path d="M15.0214 5.11279C15.0042 5.1685 15.0342 5.2285 15.0942 5.24136C17.5757 5.99136 17.9828 8.09136 17.88 9.04279C17.8786 9.05686 17.8799 9.07107 17.884 9.08461C17.8881 9.09814 17.8948 9.11074 17.9038 9.12169C17.9127 9.13263 17.9237 9.1417 17.9362 9.14839C17.9487 9.15507 17.9623 9.15924 17.9764 9.16064C17.9905 9.16205 18.0047 9.16067 18.0182 9.15659C18.0317 9.1525 18.0443 9.14579 18.0553 9.13684C18.0662 9.12789 18.0753 9.11686 18.082 9.1044C18.0887 9.09194 18.0928 9.07829 18.0942 9.06422C18.2014 8.0485 17.7642 5.82422 15.1542 5.03993C15.1407 5.03599 15.1266 5.03475 15.1126 5.03628C15.0986 5.03781 15.0851 5.04208 15.0727 5.04884C15.0604 5.05561 15.0495 5.06474 15.0407 5.07571C15.0319 5.08668 15.0253 5.09928 15.0214 5.11279Z" fill="url(#paint5_linear_31_16558)"/>
</g>
<defs>
<linearGradient id="paint0_linear_31_16558" x1="6.86157" y1="15.7027" x2="14.563" y2="15.7027" gradientUnits="userSpaceOnUse">
<stop stop-color="#E20882"/>
<stop offset="1" stop-color="#664DA0"/>
</linearGradient>
<linearGradient id="paint1_linear_31_16558" x1="12.0001" y1="9.08986" x2="12.0001" y2="16.2856" gradientUnits="userSpaceOnUse">
<stop stop-color="#34C5F2"/>
<stop offset="0.82" stop-color="#34C5F2" stop-opacity="0"/>
</linearGradient>
<linearGradient id="paint2_linear_31_16558" x1="7.94138" y1="6.24875" x2="7.94138" y2="9.05161" gradientUnits="userSpaceOnUse">
<stop stop-color="#5FB5CE"/>
<stop offset="1" stop-color="#51A5D8"/>
</linearGradient>
<linearGradient id="paint3_linear_31_16558" x1="7.43993" y1="5.14294" x2="7.43993" y2="9.05151" gradientUnits="userSpaceOnUse">
<stop stop-color="#5FB5CE"/>
<stop offset="1" stop-color="#51A5D8"/>
</linearGradient>
<linearGradient id="paint4_linear_31_16558" x1="16.0585" y1="6.24874" x2="16.0585" y2="9.0516" gradientUnits="userSpaceOnUse">
<stop stop-color="#5FB5CE"/>
<stop offset="1" stop-color="#51A5D8"/>
</linearGradient>
<linearGradient id="paint5_linear_31_16558" x1="16.56" y1="5.14279" x2="16.56" y2="9.05136" gradientUnits="userSpaceOnUse">
<stop stop-color="#5FB5CE"/>
<stop offset="1" stop-color="#51A5D8"/>
</linearGradient>
<clipPath id="clip0_31_16558">
<rect width="24" height="24" fill="white"/>
</clipPath>
</defs>
</svg>

<svg xmlns="http://www.w3.org/2000/svg" width="24" height="24" fill="none" viewBox="0 0 24 24"><g clip-path="url(#a)"><path fill="#F0F3FA" d="M0 0h24v24H0z"/><path fill="url(#b)" d="M11.974 16.286H6.91c-.159-.018-.48-.163-.48-.618 0-.458.377-.66.565-.668.926 0 1.128-.686 1.149-1.067v-3.369c0-2.186 1.869-3.206 2.769-3.441 0-.845.677-1.097 1.062-1.123h.052c.386.026 1.063.278 1.063 1.123.9.235 2.768 1.255 2.768 3.441v3.369c.022.385.223 1.067 1.149 1.067.188.008.566.214.566.668s-.322.6-.48.618zM12 18.428c-1.067 0-1.928-.771-1.928-1.714h3.857c0 .943-.862 1.714-1.929 1.714"/><path fill="url(#c)" d="M6.909 16.286h10.183c.158-.018.48-.163.48-.618a.654.654 0 0 0-.566-.668c-.926 0-1.127-.686-1.149-1.067v-3.369c0-2.186-1.868-3.206-2.768-3.441 0-.845-.677-1.097-1.063-1.123h-.052c-.385.026-1.062.278-1.062 1.123-.9.235-2.769 1.255-2.769 3.441v3.369a1.25 1.25 0 0 1-1.286 1.144c-.188.009-.428.133-.428.591 0 .455.321.6.48.618"/><path fill="url(#d)" d="M9.077 6.214a.107.107 0 0 1-.073.138c-1.757.527-2.048 2.014-1.975 2.691a.108.108 0 0 1-.215.021 2.8 2.8 0 0 1 2.13-2.918.105.105 0 0 1 .133.073z"/><path fill="url(#e)" d="M8.979 5.113a.107.107 0 0 1-.073.129c-2.482.75-2.889 2.85-2.786 3.8a.108.108 0 1 1-.214.022c-.107-1.015.33-3.24 2.94-4.024a.11.11 0 0 1 .133.073"/><path fill="url(#f)" d="M14.923 6.214c-.017.06.013.12.073.138 1.757.527 2.048 2.014 1.975 2.691a.108.108 0 0 0 .215.021 2.8 2.8 0 0 0-2.13-2.918.107.107 0 0 0-.133.073z"/><path fill="url(#g)" d="M15.021 5.113a.1.1 0 0 0 .073.128c2.482.75 2.889 2.85 2.786 3.802a.108.108 0 1 0 .214.021c.107-1.015-.33-3.24-2.94-4.024a.107.107 0 0 0-.133.073"/></g><defs><linearGradient id="b" x1="6.862" x2="14.563" y1="15.703" y2="15.703" gradientUnits="userSpaceOnUse"><stop stop-color="#E20882"/><stop offset="1" stop-color="#664DA0"/></linearGradient><linearGradient id="c" x1="12" x2="12" y1="9.09" y2="16.286" gradientUnits="userSpaceOnUse"><stop stop-color="#34C5F2"/><stop offset=".82" stop-color="#34C5F2" stop-opacity="0"/></linearGradient><linearGradient id="d" x1="7.941" x2="7.941" y1="6.249" y2="9.052" gradientUnits="userSpaceOnUse"><stop stop-color="#5FB5CE"/><stop offset="1" stop-color="#51A5D8"/></linearGradient><linearGradient id="e" x1="7.44" x2="7.44" y1="5.143" y2="9.052" gradientUnits="userSpaceOnUse"><stop stop-color="#5FB5CE"/><stop offset="1" stop-color="#51A5D8"/></linearGradient><linearGradient id="f" x1="16.058" x2="16.058" y1="6.249" y2="9.052" gradientUnits="userSpaceOnUse"><stop stop-color="#5FB5CE"/><stop offset="1" stop-color="#51A5D8"/></linearGradient><linearGradient id="g" x1="16.56" x2="16.56" y1="5.143" y2="9.051" gradientUnits="userSpaceOnUse"><stop stop-color="#5FB5CE"/><stop offset="1" stop-color="#51A5D8"/></linearGradient><clipPath id="a"><path fill="#fff" d="M0 0h24v24H0z"/></clipPath></defs></svg>
